src/assets/images/IconShowPassword.svg

<svg width="31" height="21" viewBox="0 0 31 21" fill="none" xmlns="http://www.w3.org/2000/svg">
<path d="M15.5 0.1875C8.625 0.1875 2.75375 4.46375 0.375 10.5C2.75375 16.5362 8.625 20.8125 15.5 20.8125C22.375 20.8125 28.2462 16.5362 30.625 10.5C28.2462 4.46375 22.375 0.1875 15.5 0.1875ZM15.5 17.375C11.705 17.375 8.625 14.295 8.625 10.5C8.625 6.705 11.705 3.625 15.5 3.625C19.295 3.625 22.375 6.705 22.375 10.5C22.375 14.295 19.295 17.375 15.5 17.375ZM15.5 6.375C13.2175 6.375 11.375 8.2175 11.375 10.5C11.375 12.7825 13.2175 14.625 15.5 14.625C17.7825 14.625 19.625 12.7825 19.625 10.5C19.625 8.2175 17.7825 6.375 15.5 6.375Z" fill="black"/>
</svg>

<svg width="31" height="21" fill="none" xmlns="http://www.w3.org/2000/svg"><path d="M15.5.188C8.625.188 2.754 4.463.375 10.5c2.379 6.036 8.25 10.313 15.125 10.313S28.246 16.535 30.625 10.5C28.246 4.464 22.375.187 15.5.187zm0 17.187A6.878 6.878 0 018.625 10.5 6.878 6.878 0 0115.5 3.625a6.878 6.878 0 016.875 6.875 6.878 6.878 0 01-6.875 6.875zm0-11a4.12 4.12 0 00-4.125 4.125 4.12 4.12 0 004.125 4.125 4.12 4.12 0 004.125-4.125A4.12 4.12 0 0015.5 6.375z" fill="#000"/></svg>
